packages/icons/svg/Outline/linkedin.svg

<svg fill="none" height="24" viewBox="0 0 24 24" width="24" xmlns="http://www.w3.org/2000/svg"><path clip-rule="evenodd" d="m4 10h-.002l.002 10h2v-10zm2 11.9999h-2c-1.103 0-2-.897-2-2v-9.99997c0-1.103.897-2 2-2h2c1.103 0 2 .897 2 2v9.99997c0 1.103-.897 2-2 2zm9.5049-10.3075c.153 0 .308.013.461.037 1.35.221 2.367 1.467 2.367 2.9v5.371h1.667v-5.462c0-2.502-2.018-4.538-4.5-4.538-2.481 0-4.5 2.036-4.5 4.538v5.462h1.667v-5.462c0-.839.365-1.631 1.003-2.173.516-.438 1.165-.673 1.835-.673zm4.495 10.3081h-1.667c-1.102 0-2-.898-2-2v-5.371c0-.457-.303-.863-.688-.925-.336-.058-.57.092-.679.184-.19.162-.299.399-.299.65v5.462c0 1.102-.897 2-2 2h-1.667c-1.10202 0-2.00002-.898-2.00002-2v-5.462c0-3.606 2.91602-6.53797 6.50002-6.53797s6.5 2.93197 6.5 6.53797v5.462c0 1.102-.897 2-2 2zm-14.99988-19.00043c-.552 0-1 .448-1 1s.448 1 1 1 1-.448 1-1-.448-1-1-1zm-.00002 3.99993c-1.654 0-3-1.346-3-3s1.346-3 3-3 3 1.346 3 3-1.346 3-3 3z" fill="#6b7280" fill-rule="evenodd"/></svg>

<svg width="24" height="24" viewBox="0 0 24 24" fill="none" xmlns="http://www.w3.org/2000/svg">
<g id="Icon/Outline/linkedin">
<path id="Mask" fill-rule="evenodd" clip-rule="evenodd" d="M4 10H3.998L4 20H6V10H4ZM6 22H4C2.897 22 2 21.103 2 20V10C2 8.897 2.897 8 4 8H6C7.103 8 8 8.897 8 10V20C8 21.103 7.103 22 6 22ZM15.5049 11.6924C15.6579 11.6924 15.8129 11.7054 15.9659 11.7294C17.3159 11.9504 18.3329 13.1964 18.3329 14.6294V20.0004H19.9999V14.5384C19.9999 12.0364 17.9819 10.0004 15.4999 10.0004C13.0189 10.0004 10.9999 12.0364 10.9999 14.5384V20.0004H12.6669V14.5384C12.6669 13.6994 13.0319 12.9074 13.6699 12.3654C14.1859 11.9274 14.8349 11.6924 15.5049 11.6924ZM19.9999 22.0004H18.3329C17.2309 22.0004 16.3329 21.1024 16.3329 20.0004V14.6294C16.3329 14.1724 16.0299 13.7664 15.6449 13.7044C15.3089 13.6464 15.0749 13.7964 14.9659 13.8884C14.7759 14.0504 14.6669 14.2874 14.6669 14.5384V20.0004C14.6669 21.1024 13.7699 22.0004 12.6669 22.0004H10.9999C9.8979 22.0004 8.9999 21.1024 8.9999 20.0004V14.5384C8.9999 10.9324 11.9159 8.0004 15.4999 8.0004C19.0839 8.0004 21.9999 10.9324 21.9999 14.5384V20.0004C21.9999 21.1024 21.1029 22.0004 19.9999 22.0004ZM5 3C4.448 3 4 3.448 4 4C4 4.552 4.448 5 5 5C5.552 5 6 4.552 6 4C6 3.448 5.552 3 5 3ZM5 7C3.346 7 2 5.654 2 4C2 2.346 3.346 1 5 1C6.654 1 8 2.346 8 4C8 5.654 6.654 7 5 7Z" fill="#000000"/>
</g>
</svg>
